X: 61
T:Rainy Day, The
M:C|
L:1/8
R:Reel
K:ADor
G[|:EAAG ~A3G|(3Bcd ed gedc|BGGF ~G2dG|~G2dG EGDG|!
EAAG ~A3G|BA~A2 (3Bcd ef|~g3e dBGA|1B2dB A3G:|2B2dB A3d|!
|:eaag ~a3g|ba~a2 bgag|eggf ~g3a|bg~g2 bgag|!
ea~a2 aged|(3Bcd ef g2ag|eaag egdG|1B2dB A3d:|2B2dB A3G|]
